X: 305605
M: 2/4
L: 1/16
K: D
dfdf ecAc | dBGB AFDF | GBAc Bged | cAA (3(ABc) |\
dAA2 eAA2 | fefg aAA2 | BdGB AGFE | D2D2D2 :|
|: A2 |\
dcdA FAFD | BGDG BGdB | gefd ecdB | cded cBAG |\
[AF]dd2 Gee2 | Aff2 Bgg2 | afdf gedc | d2d2d2 :|


